resources/icons/refresh.svg

<svg xmlns="http://www.w3.org/2000/svg"  viewBox="0 0 30 30" width="30px" height="30px"><path d="M 15 3 C 12.031398 3 9.3028202 4.0834384 7.2070312 5.875 A 1.0001 1.0001 0 1 0 8.5058594 7.3945312 C 10.25407 5.9000929 12.516602 5 15 5 C 20.19656 5 24.450989 8.9379267 24.951172 14 L 22 14 L 26 20 L 30 14 L 26.949219 14 C 26.437925 7.8516588 21.277839 3 15 3 z M 4 10 L 0 16 L 3.0507812 16 C 3.562075 22.148341 8.7221607 27 15 27 C 17.968602 27 20.69718 25.916562 22.792969 24.125 A 1.0001 1.0001 0 1 0 21.494141 22.605469 C 19.74593 24.099907 17.483398 25 15 25 C 9.80344 25 5.5490109 21.062074 5.0488281 16 L 8 16 L 4 10 z"/></svg>

<svg xmlns="http://www.w3.org/2000/svg" xmlns:xlink="http://www.w3.org/1999/xlink" viewBox="0,0,256,256" width="30px" height="30px" fill-rule="nonzero"><g fill="#ffffff" fill-rule="nonzero" stroke="none" stroke-width="1" stroke-linecap="butt" stroke-linejoin="miter" stroke-miterlimit="10" stroke-dasharray="" stroke-dashoffset="0" font-family="none" font-weight="none" font-size="none" text-anchor="none" style="mix-blend-mode: normal"><g transform="scale(8.53333,8.53333)"><path d="M15,3c-2.9686,0 -5.69718,1.08344 -7.79297,2.875c-0.28605,0.22772 -0.42503,0.59339 -0.36245,0.95363c0.06258,0.36023 0.31676,0.6576 0.66286,0.77549c0.3461,0.1179 0.72895,0.03753 0.99842,-0.20959c1.74821,-1.49444 4.01074,-2.39453 6.49414,-2.39453c5.19656,0 9.45099,3.93793 9.95117,9h-2.95117l4,6l4,-6h-3.05078c-0.51129,-6.14834 -5.67138,-11 -11.94922,-11zM4,10l-4,6h3.05078c0.51129,6.14834 5.67138,11 11.94922,11c2.9686,0 5.69718,-1.08344 7.79297,-2.875c0.28605,-0.22772 0.42504,-0.59339 0.36245,-0.95363c-0.06258,-0.36023 -0.31676,-0.6576 -0.66286,-0.7755c-0.3461,-0.1179 -0.72895,-0.03753 -0.99842,0.20959c-1.74821,1.49444 -4.01074,2.39453 -6.49414,2.39453c-5.19656,0 -9.45099,-3.93793 -9.95117,-9h2.95117z"></path></g></g></svg>
